X:1
T:Je ne fus jamais si aise
T:Pierre Certon
T:Source : Il primo libro di madrigali a 3 voci---Venetia---A.Gardano---1559. Editor: André Vierendeels (27/10/14).
T:#
T:Notes : Orignal clefs : G2, C3, F3 Original note values have been halved Editorial accidentals above the staff
T:Ie ne fus iamais si ayse
C:Pierre Certon
%%score [ 1 [ 2 3 ] ]
L:1/8
Q:1/4=90
M:2/2
K:F
V:1 treble nm="Canto" snm="C"
V:2 treble-8 nm="Tenor 1" snm="T 1"
V:3 treble-8 nm="Tenor 2" snm="T 2"
V:1
 GA Bc d2 d2 | c2 B2 A2 B2 | B2 BB A2 G2 | G2 F2 G4 | GA Bc d2 d2 | c2 B2 A2 B2 | B3 B A2 G2 | %7
w: Ie- * ne- * fus ia-|mais si ay- se|que iay es- te de-|puis trois iours,|trou _ vai _ ma mie|a son ay- se|qui ma faict ung|
"^#" G2 F2 G2 z G | A2 B2 c2 z A | Bc d2 z ABc | A2 G2 z ABc | A2 G2 z dcB | AGFE DdcB | %13
w: grant se- cours et|mon a- mi, et|la la la que ies- tois|ay- se, que- ies- tois|ay- se et- la la|la la la lla la et la la|
 AGFE DABc | A2 G2 z ABc | A2 G2 z2 d2 | c2 B2 A2 G2 |"^#" F2 G4 F2 | GdcB AGFE | DdcB AGFE | %20
w: la la la la la que ies- tois|ay- se, que ies- tois|ay- se quant|ie fai- sois le|ieu da- *|mours et la la la la la la|la et la la la la la la|
 DABc A2 G2 | z ABc A2 G2 | z2 d2 c2 B2 | A2 G2 F2 G2- |"^#" G2 F2 G2 d2 | c2 B2 A2 G2 | %26
w: la que ies- tois ay- se,|que ies- tois ay- se|quant ie fai-|sois le ieu da-|* * mours, quant|ie fai- sois le|
"^#" F2 G4 F2 | G8 |] %28
w: ieu da- *|mours.|
V:2
 g2 g2 f2 d2 | e2 d2 c2 B2 | d2 dd c2 B2 | A2 A2 G4 | g2 g2 f2 d2 | e2 d2 c2 B2 | d3 d c2 B2 | %7
w: Ie ne fus ia-|mais si ay- se|que iay es- te de-|puis trois iours,-|trou- vai ma mie|a son ay- se|qui ma faict ung|
 A2 A2 G4 | z2 d2 e2 f2 | gGAB c2 z e | fd e2 d2 z e | fd e2 d2 z g | fedc BAGg | fedc BAGe | %14
w: grant se- cours|et mon a-|mi et la la la que|ies- tois ay- se, que|ies- tois ay- se et|la la la la la la la et|la la la la la la la que|
 fd e2 d2 z e | fd e2 d4 | z2 d2 c2 B2 | A2 G2 A2 A2 | G2 z g fedc | BAGg fedc | BAGe fd e2 | %21
w: ies- tois ay- se, que|ies- tois ay- se|quant ie fai-|sois le ieu da-|mours et la la la la|la la la et la la la la|la la la que ies- tois ay-|
 d2 z e fd e2 | d4 z2 d2 | c2 B2 A2 G2 | A2 A2 G4 | z2 d2 c2 B2 | A2 G2 A2 A2 | G8 |] %28
w: se, que ies- tois ay-|se quant|ie fai- sois le|ieu da- mours,|quant ie fai-|sois le ieu da-|mours.|
V:3
 z8 | z8 | G2 GD F2 G2 | D2 D2 G4 | G2 G2 B2 B2 | c2 G2 A2 G2 | G3 D F2 G2 | D2 D2 G2 z E | %8
w: ||Quant iay es- te de-|puis trois iours,|trou- vai ma mie|a son ay- se|qui ma faict ung|grant se- cours et|
 F2 G2 CcBA | GEFG CFGA | F2 c2 z FGA | F2 c2 z BAG | d2 D2 GFEE |"^#" FG D2 GFGA | F2 c2 z FGA | %15
w: mon a- mi et la la|la la la la la- que ies- tois|ay- se, que ies- tois|ay- se et la la|la et la la la que|ies- tois ay- se, que ies- tois|ay- se, que ies- tois|
 F2 c2 z2 B2 | A2 B2 F2 G2 |"^b" D2 E2 D4 | GBAG d2 D2 | GFEE FG D2 | GFGA D2 c2 | z FGA F2 c2 | %22
w: ay- se quant|ie fai- sois le|ieu da- mours|et la la la la et|la la la que ies- tois ay-|se, que ies- tois ay- se,|que ies- tois ay- se|
"^#" z2 B2 A2 B2 | F2 G2 D2 E2 | D4 G2 B2 | A2 B2 F2 G2 |"^b" D2 E2 D4 | G8 |] %28
w: quant ie fai-|sois le ieu da-|* mours quant|ie fai- sois le|ieu da- *|mours.|

